!!!!SEGMENT: pl-sa--82-a-ii-22--002_anonim--missa-ex-f-gloria.krn
!!!cenid: 17xx:1532
!!!COM: Anonim
!!!COM-rismID: pe30004985
!!!CDT:
!!!CNT:
!!!OPR: Missa ex F
!!!OTL: Gloria
!!!OMV: 002
!!!PDT:
!!!AGN: Sacred; Mass
!!!SMS-siglum: PL-SA
!!!SMS-shelfmark: 82/A II 22
!!!SMS-shelfwork: 001-002 M
!!!SMS-variant:
!!!SMS-altvar:
!!!NIFC-rismSourceID: 1001035461
!!!NIFC-rismChildID: 1001035461
!!!NIFC-islandoraID: none
!!!URL-pdf-islandora:
!!!URL-scan: https://bc.bdsandomierz.pl/dlibra/publication/1360/edition/1328/content @EN{Scan in the Sandomierz Diocese Digital Library} @PL{Skany w portalu Cyfrowa Biblioteka Diecezjalna w Sandomierzu}
!!!ONB-nifc: UWAGA: części Mszy: 1. Kyrie, 2. Gloria, 3. Patrem, 4. Sanctus, 5. Benedictus, 6. Agnus Dei
!!!AIN: 1 organ 2 soprn 2 violn
!!!key: F
**kern	**kern	**kern	**kern	**text	**text	**kern	**text
*part5	*part4	*part3	*part2	*part2	*part2	*part1	*part1
*staff5	*staff4	*staff3	*staff2	*staff2	*staff2	*staff1	*staff1
*I"Baſso.	*I"Violino 2do	*I"Violino Primo	*I"Canto Secundo.	*	*	*I"Canto	*
*I'B	*I'vl II	*I'vl I	*I'S II	*	*	*I'S	*
*ICklav	*ICstr	*ICstr	*ICvox	*	*	*ICvox	*
*Iorgan	*Ivioln	*Ivioln	*Isoprn	*	*	*Isoprn	*
*clefF4	*clefG2	*clefG2	*clefC1	*	*	*clefC1	*
*k[b-]	*k[b-]	*k[b-]	*k[b-]	*	*	*k[b-]	*
*F:	*F:	*F:	*F:	*	*	*F:	*
*M2/4	*M2/4	*M2/4	*M2/4	*	*	*M2/4	*
=1	=1	=1	=1	=1	=1	=1	=1
!!LO:TX:t=P:problem:2\right	!	!	!	!	!	!	!
*tremolo	*	*	*	*	*	*	*
!LO:TX:a:B:t=allo.	!LO:TX:a:B:t=allo.	!	!	!	!	!	!
*	*tremolo	*	*	*	*	*	*
!	!	!LO:TX:a:B:t=allo.	!LO:TX:a:t=4	!	!	!LO:TX:a:B:t=allo.	!
8F\L	8A/L	4.f/	2r	.	.	4.f/	Glo-
8F\	8c/	.	.	.	.	.	.
8F\	8A/	.	.	.	.	.	.
8F\J	8c/J	16g/LL	.	.	.	16g/LL	-ri-
.	.	16f/JJ	.	.	.	16f/JJ	-a
=2	=2	=2	=2	=2	=2	=2	=2
8F\L	8A/L	8f/L	2r	.	.	8f/	In
!	!	!	!	!	!	!	!LO:MO:mod=ex-
8F\	8c/	8g/	.	.	.	8g/	ne-
!	!	!	!	!	!	!	!LO:MO:mod=-cel-
8F\	8A/	8a/	.	.	.	8a/	-xel-
!	!	!	!	!	!	!	!LO:MO:mod=-sis
8F\J	8c/J	8f/J	.	.	.	8f/	-cis
*Xtremolo	*Xtremolo	*	*	*	*	*	*
=3	=3	=3	=3	=3	=3	=3	=3
8C\L	4c/	4g/	2r	.	.	4g/	De-
8E\	.	.	.	.	.	.	.
8G\	4c/	4e/	.	.	.	4e/	.
8c\J	.	.	.	.	.	.	.
=4	=4	=4	=4	=4	=4	=4	=4
8c\L	8c/L	4c/	2r	.	.	4c/	-o
8G\	8d/	.	.	.	.	.	.
8E\	8e/	4rg	.	.	.	4r	.
8C\J	8c/J	.	.	.	.	.	.
=5	=5	=5	=5	=5	=5	=5	=5
*tremolo	*tremolo	*	*	*	*	*	*
!	!	!	!LO:TX:a:B:t=allo.	!	!	!	!
8C/L	8c/L	4.g/	4.e/	Glo-	.	4.g/	glo-
8C/	8e/	.	.	.	.	.	.
8C/	8c/	.	.	.	.	.	.
8C/J	8e/J	16a/LL	16f/LL	-ri-	.	16a/LL	-ri-
.	.	16g/JJ	16e/JJ	-a	.	16g/JJ	-a
=6	=6	=6	=6	=6	=6	=6	=6
8C/L	8c/L	8g/L	8e/	in	.	8g/	in
!	!	!	!	!LO:MO:mod=ex-	!	!	!LO:MO:mod=ex-
8C/	8e/	8a/	8f/	ne-	.	8a/	ne-
!	!	!	!	!LO:MO:mod=-cel-	!	!	!LO:MO:mod=-cel-
8C/	8c/	8b-/	8g/	-exel-	.	8b-/	-xel-
!	!	!	!	!LO:MO:mod=-sis	!	!	!LO:MO:mod=-sis
8C/J	8e/J	8g/J	8e/	-cis	.	8g/	-cis
*Xtremolo	*	*	*	*	*	*	*
=7	=7	=7	=7	=7	=7	=7	=7
8F\L	(8A/L	4cc/	4a\	De-	.	4cc\	De-
8A\	8c/)	.	.	.	.	.	.
8c\	(8A/	4a/	4f/	.	.	4a\	.
8f\J	8c/J)	.	.	.	.	.	.
*	*Xtremolo	*	*	*	*	*	*
=8	=8	=8	=8	=8	=8	=8	=8
8f\L	4A/	4f/	4f/	-o.	.	4f/	-o
8c\	.	.	.	.	.	.	.
8A\	4r	4r	4r	.	.	4r	.
8F\J	.	.	.	.	.	.	.
!	!	!	!	!	!	!LO:LB:g=original	!
=9	=9	=9	=9	=9	=9	=9	=9
4F\	8a/L	8ff\L	8a\	Et	.	8ff\	Et
.	8a/	8ff\	8a\	in	.	8ff\	in
4r	8cc/	8ee\	8cc\	ter-	.	8ee\	ter-
.	8cc/J	8ee\J	8cc\	-ra	.	8ee\	-ra
=10	=10	=10	=10	=10	=10	=10	=10
8r	4b-\	4dd\	4b-\	pax.	.	4dd\	pax.
8F\L	.	.	.	.	.	.	.
8A\	4r	4r	4r	.	.	4r	.
8F\J	.	.	.	.	.	.	.
=11	=11	=11	=11	=11	=11	=11	=11
4E\	8b-/L	8dd\L	8b-\	et	.	8dd\	et
.	8b-/	8dd\	8b-\	in	.	8dd\	in
4r	8a/	8cc\	8a\	ter-	.	8cc\	ter-
.	8a/J	8cc\J	8a\	-ra	.	8cc\	-ra
!	!	!	!LO:LB:g=original	!	!	!	!
=12	=12	=12	=12	=12	=12	=12	=12
8r	4g/	4b-\	4g/	pax.	.	4b-\	pax.
8C/L	.	.	.	.	.	.	.
8E/	4r	4r	4r	.	.	4r	.
8C/J	.	.	.	.	.	.	.
!LO:LB:g=original	!LO:LB:g=original	!	!	!	!	!	!
=13	=13	=13	=13	=13	=13	=13	=13
4E\	4e/	4g/	4e/	pax	.	4g\	pax
8r	8g/L	8b-/L	8g/	bo-	.	8b-\	bo-
!	!	!	!	!LO:MO:mod=-nae	!	!	!LO:MO:mod=-nae
8C/	8g/J	8b-/J	8g/	-ne	.	8b-\	-ne
!	!	!LO:LB:g=original	!	!	!	!	!
=14	=14	=14	=14	=14	=14	=14	=14
4F\	8f/L	8a/L	8f/	vo-	.	8a\	vo-
.	8a/	8cc/	8a/	-lun-	.	8cc\	-lun-
8r	8a/	8cc/	8a/	-ta-	.	8cc\L	-ta-
8C/	8a/J	8cc/J	8a/	-tis.	.	8cc\J	-tis
=15	=15	=15	=15	=15	=15	=15	=15
8E\L	4g/	4b-/	4g/	pax	.	4b-\	pax.
8C\	.	.	.	.	.	.	.
8E\	4e/	4g/	4e/	pax	.	4g\	pax
8C\J	.	.	.	.	.	.	.
=16	=16	=16	=16	=16	=16	=16	=16
8F/L	4f/	4a/	4f/	pax	.	4a\	pax
8C/	.	.	.	.	.	.	.
8AA/	4r	4r	4r	.	.	4r	.
8FF/J	.	.	.	.	.	.	.
!	!	!	!	!	!	!LO:LB:g=original	!
=17	=17	=17	=17	=17	=17	=17	=17
8E\L	4g/	4b-/	4g/	pax	.	4b-\	pax
8C\	.	.	.	.	.	.	.
8E\	4e/	4g/	4e/	pax	.	4g\	pax
8C\J	.	.	.	.	.	.	.
=18	=18	=18	=18	=18	=18	=18	=18
4FF;/	4f/	4a/	4f/	pax.	.	4a\	pax.
4r	4r;	4r;	4r	.	.	4r;	.
!	!	!	!LO:LB:g=original	!	!	!	!
=19||	=19||	=19||	=19||	=19||	=19||	=19||	=19||
*k[b-e-]	*k[b-e-]	*k[b-e-]	*k[b-e-]	*	*	*k[b-e-]	*
!LO:TX:a:B:t=ada&colon;	!LO:TX:b:t=Laudamus	!LO:TX:b:t=Laudamus	!LO:TX:b:t=8	!	!	!LO:TX:t=P:problem=kolejność znaków b- ee-	!
!LO:TX:b:t=Laudamus	!LO:TX:a:B:t=and&colon;	!LO:TX:a:B:t=adante	!LO:TX:a:B:t=ada&colon;	!	!	!LO:TX:a:B:t=ada&colon;	!
8r	8r	4b-\	2r	.	.	2b-\	Lau-
8BB-/L	8d/L	.	.	.	.	.	.
8D/	8d/	4b-\	.	.	.	.	.
8F/J	8d/J	.	.	.	.	.	.
=20	=20	=20	=20	=20	=20	=20	=20
4BB-/	8r	8b-\L	2r	.	.	8b-\	.
.	8d/L	16dd\L	.	.	.	16dd\LL	.
.	.	16cc\JJ	.	.	.	16cc\JJ	.
4r	8d/	8b-\L	.	.	.	8b-\	-da-
.	8d/J	8b-\J	.	.	.	8b-\	-mus.
=21	=21	=21	=21	=21	=21	=21	=21
*tremolo	*	*	*	*	*	*	*
8F\L	4a/	4cc/	2r	.	.	4cc\	lau-
8F\	.	.	.	.	.	.	.
8F\	4f/	4a/	.	.	.	8a\	-da-
8F\J	.	.	.	.	.	8a\	-mus
=22	=22	=22	=22	=22	=22	=22	=22
8F\L	4A/	4f/	2r	.	.	4f/	te
8F\	.	.	.	.	.	.	.
8F\	4r	4r	.	.	.	4r	.
8F\J	.	.	.	.	.	.	.
*Xtremolo	*	*	*	*	*	*	*
=23	=23	=23	=23	=23	=23	=23	=23
8r	8r	4cc\	2r	.	.	2cc\	be-
8F\L	8e-/L	.	.	.	.	.	.
8A\	8e-/	4cc\	.	.	.	.	.
8c\J	8e-/J	.	.	.	.	.	.
=24	=24	=24	=24	=24	=24	=24	=24
4F\	8r	8cc\L	2r	.	.	8cc\	.
.	8e-/L	16ee-\L	.	.	.	16ee-\LL	.
.	.	16dd\JJ	.	.	.	16dd\JJ	.
4r	8e-/	8cc\L	.	.	.	8cc\L	-ne-
.	8e-/J	8cc\J	.	.	.	8cc\J	.
!	!LO:LB:g=original	!	!	!	!	!LO:LB:g=original	!
=25	=25	=25	=25	=25	=25	=25	=25
*tremolo	*	*	*	*	*	*	*
8BB-/L	4b-/	4dd\	2r	.	.	4dd\	-di-
8BB-/	.	.	.	.	.	.	.
8BB-/	4d/	4b-\	.	.	.	8b-\	-ci-
8BB-/J	.	.	.	.	.	8b-\	-mus
!LO:LB:g=original	!	!	!	!	!	!	!
=26	=26	=26	=26	=26	=26	=26	=26
8BB-/L	4d/	4f/	2r	.	.	4f/	te.
8BB-/	.	.	.	.	.	.	.
8BB-/	4r	4r	.	.	.	4r	.
8BB-/J	.	.	.	.	.	.	.
=27	=27	=27	=27	=27	=27	=27	=27
8B-\L	4dd\	4ff\	4dd\	A-	.	4ff\	A-
8B-\	.	.	.	.	.	.	.
8B-\	8b-\L	8dd\L	8b-\L	-do-	.	8dd\L	-do-
8B-\J	8cc\J	8ee-\J	8cc\J	.	.	8ee-\J	.
=28	=28	=28	=28	=28	=28	=28	=28
8B-\L	8dd\L	8ff\L	8dd\L	-ra-	.	8ff\L	-ra-
8B-\	8ee-\J	8gg\J	8ee-\J	-mus	.	8gg\J	-mus
8B-\	4dd\	4ff\	4dd\	te	.	4ff\	te
8B-\J	.	.	.	.	.	.	.
!	!	!LO:LB:g=original	!	!	!	!	!
=29	=29	=29	=29	=29	=29	=29	=29
*	*	*	*	*ij	*	*	*ij
8F\L	4cc\	4ee-\	4cc\	A-	.	4ee-\	A-
8F\	.	.	.	.	.	.	.
8F\	8a/L	8cc\L	8a\L	-do-	.	8cc\L	-do-
8F\J	8b-/J	8dd\J	8b-\J	.	.	8dd\J	.
=30	=30	=30	=30	=30	=30	=30	=30
8F\L	8cc\L	8ee-\L	8cc\L	-ra-	.	8ee-\L	-ra-
8F\	8dd\J	8ff\J	8dd\J	-mus	.	8ff\J	-mus
8F\	4cc\	4ee-\	4cc\	te	.	4ee-\	te
8F\J	.	.	.	.	.	.	.
*Xtremolo	*	*	*	*Xij	*	*	*Xij
=31	=31	=31	=31	=31	=31	=31	=31
4D\	8f/L	8dd\L	8f/L	glo-	.	8dd\L	glo-
.	8d/	8b-\	8d/J	.	.	8b-\J	.
4E-\	8g/	8ee-\	8g/L	-ri-	.	8ee-\L	-ri-
.	8e-/J	8cc\J	8e-/J	-fi-	.	8cc\J	-fi-
=32	=32	=32	=32	=32	=32	=32	=32
4F\	4d/	4b-/	4d/	-ca-	.	4b-\	-ca-
4FF/	4c/	4a/	4c/	-mus	.	4a\	-mus
!	!	!	!	!	!	!LO:LB:g=original	!
=33	=33	=33	=33	=33	=33	=33	=33
*	*tremolo	*tremolo	*	*	*	*	*
4BB-/	8d/L	8b-\L	4d/	te	.	4b-\	te,
.	8d/	8b-\	.	.	.	.	.
4r	8d/	8b-\	8d/	gra-	.	8b-\	gra-
.	8d/J	8b-\J	8d/	-tias	.	8b-\	-tias
*	*Xtremolo	*Xtremolo	*	*	*	*	*
!	!	!	!LO:LB:g=original	!	!	!	!
=34	=34	=34	=34	=34	=34	=34	=34
8r	4e-/	4cc\	16a\	a-	.	16cc\	a-
.	.	.	16a\	-gi-	.	16cc\	-gi-
8F\L	.	.	8a\	-mus	.	8cc\	-mus
8A\	4r	4r	8a\	ti-	.	8cc\	ti-
8c\J	.	.	8a\	-bi	.	8cc\	-bi
=35	=35	=35	=35	=35	=35	=35	=35
*	*tremolo	*tremolo	*	*	*	*	*
4F\	8a/L	8cc\L	8a\	pro-	.	8cc\	pro-
.	8a/	8cc\	8a\	-pter	.	8cc\	-pter
4r	8a/	8cc\	8a\	Ma-	.	8cc\	ma-
.	8a/J	8cc\J	8a\	-gnam	.	8cc\	-gnam
*	*Xtremolo	*Xtremolo	*	*	*	*	*
=36	=36	=36	=36	=36	=36	=36	=36
8B-\L	4b-\	4dd\	16b-\	Glo-	.	16dd\	glo-
.	.	.	16b-\	-ri-	.	16dd\	-ri-
8F\	.	.	8b-\	-am	.	8dd\	-am
8D\	4r	4r	8b-\	tu-	.	8dd\	tu-
8BB-\J	.	.	8b-\	-am	.	8dd\	-am.
=37	=37	=37	=37	=37	=37	=37	=37
*tremolo	*	*	*	*	*	*	*
8F\L	8dd\L	8ff\L	8dd\L	Do-	.	8ff\L	Do-
8F\	8ee-\J	8gg\J	8ee-\J	-mi-	.	8gg\J	-mi-
8F\	4cc\	4ee-\	4cc\	-ne	.	4ee-\	-ne
8F\J	.	.	.	.	.	.	.
=38	=38	=38	=38	=38	=38	=38	=38
!	!	!	!LO:TX:t=P:problem=przekreślony tekst i zapisany alternatywny	!	!	!	!
8F\L	8cc\L	8ee-\L	8cc\L	De-	[[Rex	8ee-\L	De-
8F\	8dd\J	8ff\J	8dd\J	.	.	8ff\J	.
8F\	4b-\	4dd\	4b-\	-us	Coe]]	4dd\	-us
8F\J	.	.	.	.	.	.	.
!	!LO:LB:g=original	!	!	!	!	!LO:LB:g=original	!
=39	=39	=39	=39	=39	=39	=39	=39
8F\L	8f/L	8dd\L	8f/L	Rex	.	8dd\L	Rex
8F\	8g/J	8ee-\J	8g/J	.	.	8ee-\J	.
8F\	4e-/	4cc\	4e-/	Coe-	.	4cc\	Coe-
8F\J	.	.	.	.	.	.	.
!	!	!	!LO:LB:g=original	!	!	!	!
=40	=40	=40	=40	=40	=40	=40	=40
!	!	!	!	!	!	!	!LO:MO:mod=-le-
8F\L	8e-/L	8cc\L	8e-/L	-le-	.	8cc\L	-te-
8F\	8f/J	8dd\J	8f/J	.	.	8dd\J	.
8F\	4d/	4b-\	4d/	-stis.	.	4b-\	-stis.
8F\J	.	.	.	.	.	.	.
*Xtremolo	*	*	*	*	*	*	*
=41	=41	=41	=41	=41	=41	=41	=41
4BB-/	8d/L	8b-/L	8d/	De-	.	8b-\	De-
.	8f/	8f/	8d/	-us	.	8b-\	-us
4r	8d/	8b-/	8d/	Pa-	.	8b-\	Pa-
.	8f/J	8f/J	8d/	-ter	.	8b-\	-ter
=42	=42	=42	=42	=42	=42	=42	=42
*	*	*	*	*ij	*	*	*ij
4BB-/	8b-/L	8dd\L	8b-\	De-	.	8dd\	De-
.	8f/	8b-\	8b-\	-us	.	8dd\	-us
4r	8b-/	8dd\	8b-\	Pa-	.	8dd\	Pa-
.	8f/J	8b-\J	8b-\	-ter	.	8dd\	-ter
*	*	*	*	*Xij	*	*	*Xij
=43	=43	=43	=43	=43	=43	=43	=43
4B-\	8dd\L	8ff\L	8dd\	Pa-	.	8ff\	Pa-
.	8b-\	8dd\	8dd\	-ter	.	8ff\	-ter.
4r	8dd\	8ff\	8dd\	om-	.	8ff\	Om-
.	8b-\J	8dd\J	16dd\	-ni-	.	16ff\	-ni-
.	.	.	16dd\	-po-	.	16ff\	-po-
!LO:LB:g=original	!	!LO:LB:g=original	!	!	!	!	!
=44	=44	=44	=44	=44	=44	=44	=44
8B-\L	4dd\	4bb-\	4dd\	-tens	.	4bb-\	-tens.
8F\	.	.	.	.	.	.	.
8D\	8r	8r	4r	.	.	4r	.
8BB-\J	8b-\	8dd\	.	.	.	.	.
=45	=45	=45	=45	=45	=45	=45	=45
4E-\	4e-/	4ee-\	4e-/	Om-	.	4ee-\	Om-
4F\	4f/	4ff\	8f/L	-ni-	.	8ff\	-ni-
.	.	.	8f/J	-po-	.	8ff\	-po-
=46	=46	=46	=46	=46	=46	=46	=46
4BB-/	4B-/	4b-\	4B-/	-tens	.	4b-\	-tens.
!	!	!	!	!	!	!LO:TX:b:t=Vertatur. Quoniam	!
4r;	4r;	4r;	4r	.	.	4r	.
!	!	!	!LO:LB:g=original	!	!	!LO:LB:g=original	!
=47||	=47||	=47||	=47||	=47||	=47||	=47||	=47||
*k[b-]	*k[b-]	*k[b-]	*k[b-]	*	*	*k[b-]	*
*M3/8	*M3/8	*M3/8	*M3/8	*	*	*M3/8	*
!	!	!	!	!	!	!	!
*tremolo	*	*	*	*	*	*	*
!LO:TX:a:B:t=allo.	!LO:TX:b:t=Quoniam	!LO:TX:b:t=Quoniam	!	!	!	!	!
!LO:TX:b:t=Quoniam.	!LO:TX:a:B:t=allo.	!LO:TX:a:B:t=allo.	!LO:TX:a:B:t=allo&colon;	!	!	!LO:TX:a:B:t=allo.	!
8F\L	16a/LL	16cc\LL	16a\	Quo-	.	16cc\	Quo-
.	16a/J	16cc\JJ	16a\	-ni-	.	16cc\	-ni-
8F\	8a/	8cc\L	8a\	-am	.	8cc\	-am
8F\J	8a/J	8cc\J	8a\	tu	.	8cc\	tu
=48	=48	=48	=48	=48	=48	=48	=48
8F\L	8f/L	8a/L	8f/	so-	.	8a\	so-
8F\	8f/	8f/	8f/	-lus	.	8f/	-lus
8F\J	8a/J	8ff\J	8a\	tu	.	8ff\	tu
*Xtremolo	*	*	*	*	*	*	*
=49	=49	=49	=49	=49	=49	=49	=49
8C/L	8cc\L	8ee\L	8cc\	so-	.	8ee\	so-
8D/	8b-\	8dd\	8b-\	.	.	8dd\	.
8E/J	8a\J	8cc\J	8a\	-lus	.	8cc\	-lus
=50	=50	=50	=50	=50	=50	=50	=50
!	!	!	!	!	!	!	!
8F\L	8g/L	8b-/L	8g\	ſan-	.	8b-\L	ſan-
8FF/J	8f/J	8a/J	8f/	-ctus	.	8a\J	-ctus.
8r	8r	8r	8r	.	.	8r	.
!	!LO:LB:g=original	!	!	!	!	!	!
=51	=51	=51	=51	=51	=51	=51	=51
*	*tremolo	*tremolo	*	*	*	*	*
8B-\L	8g/L	8b-\L	8g\	tu	.	8b-\	tu
8G\	8g/	8b-\	8g\	so-	.	8b-\	so-
8E\J	8g/J	8b-\J	8g\	-lus	.	8b-\	-lus
*	*Xtremolo	*Xtremolo	*	*	*	*	*
!	!	!	!	!	!	!LO:LB:g=original	!
=52	=52	=52	=52	=52	=52	=52	=52
!LO:TX:a:t=e.	!	!LO:TX:t=P:problem=mixed beam	!	!	!	!	!
8E\L	8b-/L	8gg\L	8b-\	ſan-	.	8gg\	ſan-
8EE/	8g/J	8b-/J	8g\	-ctus	.	8b-\	-ctus
8EE/J	8r	8r	8r	.	.	8r	.
!	!	!	!LO:LB:g=original	!	!	!	!
=53	=53	=53	=53	=53	=53	=53	=53
*	*tremolo	*tremolo	*	*	*	*	*
8A\L	8f/L	8a/L	8f/	so-	.	8a\	so-
8F\	8f/	8a/	8f/	-lus,	.	8a\	-lus
8C\J	8f/J	8a/J	8f/	al-	.	8a\	al-
*	*Xtremolo	*Xtremolo	*	*	*	*	*
=54	=54	=54	=54	=54	=54	=54	=54
!LO:TX:t=P:problem=mixed beam	!	!	!	!	!	!	!
8AA/L	8a/L	8ff\L	16a\	-tiſ-	.	16ff\	-tiſ-
.	.	.	16a\	-si-	.	16ff\	-si-
8F\	8f/J	8a/J	8a\	-mus	.	8a\	-mus
8FF/J	8r	8r	8r	.	.	8r	.
=55	=55	=55	=55	=55	=55	=55	=55
8F\L	8a/L	8cc\L	8a\	Je-	.	8cc\	Je-
8E\	8g/	8b-\	8g\	.	.	8b-\	.
8F\J	8f/J	8a\J	8f/	-su	.	8a\	-su
=56	=56	=56	=56	=56	=56	=56	=56
!LO:TX:t=P:problem=mixed beam	!	!	!	!	!	!	!
8C/L	16f/LL	16a/LL	8f/L	chri-	.	8a\L	chri-
.	16e/J	16g/J	.	.	.	.	.
16c\L	8e/J	8g/J	8e/J	-ste.	.	8g\J	-ste.
16B-\	.	.	.	.	.	.	.
16A\	8r	8r	8r	.	.	8r	.
16G\JJ	.	.	.	.	.	.	.
!LO:LB:g=original	!	!LO:LB:g=original	!	!	!	!	!
=57	=57	=57	=57	=57	=57	=57	=57
*tremolo	*	*	*	*	*	*	*
8F\L	8d/L	8bn/L	8d/	Cum	.	8bn\	Cum
8F\	8d/	8b/	8d/	san-	.	8b\	san-
8F\J	8d/J	8b/J	8d/	-cto.	.	8b\	-cto
*Xtremolo	*	*	*	*	*	*	*
!	!	!	!	!	!	!LO:LB:g=original	!
=58	=58	=58	=58	=58	=58	=58	=58
4E\	8.e/L	8.cc\L	8.e/	ſpi-	.	8.cc\	ſpi-
.	16e/K	16cc\K	16e/	-ri-	.	16cc\	-ri-
8r	8e/J	8cc\J	8e/	-tu	.	8cc\	-tu
=59	=59	=59	=59	=59	=59	=59	=59
*tremolo	*	*	*	*	*	*	*
8G\L	8bn\L	8dd\L	8bn\	In	.	8dd\	In
8G\	8b\	8dd\	8b\	glo-	.	8dd\	glo-
8G\J	8b\J	8dd\J	8b\	-ria	.	8dd\	-ria
*Xtremolo	*	*	*	*	*	*	*
!	!	!	!LO:LB:g=original	!	!	!	!
=60	=60	=60	=60	=60	=60	=60	=60
4C/	4cc\	4ee\	4cc\	De-	.	4ee\	De-
8r	8cc\	8ee\	8cc\	-j	.	8ee\	-j
=61	=61	=61	=61	=61	=61	=61	=61
8G\L	8dd\L	8ff\L	8dd\	Pa-	.	8ff\	Pa-
8c\	8cc\J	8ee\J	8cc\	-tris	.	8ee\	-tris
8C/J	8r	8r	8r	.	.	8r	.
=62	=62	=62	=62	=62	=62	=62	=62
8r	8cc\L	8ee\L	8cc\	a-	.	8ee\	a-
8G\L	8bn\J	8dd\J	8bn\	-men	.	8dd\	-men
8GG/J	8r	8r	8r	.	.	8r	.
!	!LO:LB:g=original	!	!	!	!	!	!
=63	=63	=63	=63	=63	=63	=63	=63
8r	16a/LL	16cc\LL	16a\LL	In	.	16cc\LL	In
.	16g/JJ	16b-\JJ	16g\JJ	.	.	16b-\JJ	.
8F\L	8f/L	8a/L	8f/	glo-	.	8a\	glo-
8FF/J	8g/J	8b-/J	8g/	-ria	.	8b-\	-ria
=64	=64	=64	=64	=64	=64	=64	=64
8r	4a/	4cc\	4a\	De-	.	4cc\	De-
8F\L	.	.	.	.	.	.	.
8FF/J	8b-X/	8dd\	8b-\	-j	.	8dd\	-j
!	!	!	!	!	!	!LO:LB:g=original	!
=65	=65	=65	=65	=65	=65	=65	=65
8r	16g/LL	16b-/LL	16g/LL	De-	.	16b-\LL	De-
.	16f/JJ	16a/JJ	16f/JJ	-j	.	16a\JJ	-j
8E\L	8e/L	8g/L	8e/	Pa-	.	8g\	pa-
8C\J	8f/J	8a/J	8f/	-tris	.	8a\	-tris
=66	=66	=66	=66	=66	=66	=66	=66
8r	4g/	4b-\	4g\	a-	.	4b-\	a-
8E\L	.	.	.	.	.	.	.
8C\J	8a/	8cc\	8a\	-men	.	8cc\	-men
=67	=67	=67	=67	=67	=67	=67	=67
8F\L	8a/L	8cc\L	8a/	a-	.	8cc\	a-
8A\	8a/	8ff\	8a/	.	.	8ff\	.
8c\J	8g/J	8ee\J	8g/	.	.	8ee\	.
!	!	!	!LO:LB:g=original	!	!	!	!
=68	=68	=68	=68	=68	=68	=68	=68
8F\	8a/	8ff\	8a\	-men	.	8ff\	-men
8r	8r	8r	8r	.	.	8r	.
8C/	8g/	8ee\	8g\	a-	.	8ee\	a-
=69	=69	=69	=69	=69	=69	=69	=69
4F;\	4a/	4ff\	4a\	-men	.	4ff\	-men
!LO:N:vis=4	!	!	!	!	!	!	!
8r	8r	8r	8r	.	.	8r	.
==	==	==	==	==	==	==	==
*-	*-	*-	*-	*-	*-	*-	*-
!!!system-decoration: [(s1,s2)][(s3,s4)][(s5)]
!!!ENC: Andrzej Kubiczek
!!!END: 2021-02-02
!!!ENC: Jan Barakat
!!!END: 2022-03-21
!!!YEC: Copyright 2022 Narodowy Instytut Fryderyka Chopina (https://polishscores.org)
!!!YEM: License CC-BY-4.0 (https://creativecommons.org/licenses/by/4.0)
